app/dist/common/images/morgan-sindall-plc.svg

<svg height="18" viewBox="0 0 18 18" width="18" xmlns="http://www.w3.org/2000/svg"><path d="m0 0h18v18h-18z" fill="#f0f3fa"/><path d="m14.91 9.4c-.07.43-.45.8-.91.84-.66 0-1.09-.59-1.09-1.32 0-.66.38-1.16 1.09-1.16.38 0 .73.19.91.52l.84-.4a1.94 1.94 0 0 0 -1.72-.88c-1.25 0-2.03.76-2.03 1.94s.81 2.06 2.03 2.06c1.21 0 1.97-.95 1.97-2.01v-.39h-2v.8z" fill="#2ed095"/><path d="m11.36 9.73c0-.77-.65-1.02-1.62-1.18-.47-.08-.8-.16-.8-.44 0-.24.3-.36.62-.36.36-.02.69.13.93.4l.77-.4c-.41-.54-1-.75-1.7-.75-.92 0-1.6.44-1.6 1.2 0 .82.71 1.02 1.38 1.13.6.1 1.03.15 1.03.5 0 .26-.33.42-.7.42a1.2 1.2 0 0 1 -1.1-.54l-.84.33c.36.58.93.96 1.89.96 1.11-.02 1.74-.57 1.74-1.27z" fill="#70757a"/><path d="m7 11v-4h-1.52l-.96 2.88-.99-2.88h-1.53v4h1v-3.02l1.05 3.02h.9l1.05-3.02v3.02z"/></svg>

<!-- by TradingView --><svg width="18" height="18" viewBox="0 0 18 18" xmlns="http://www.w3.org/2000/svg"><path fill="#F0F3FA" d="M0 0h18v18H0z"/><path d="M14.91 9.4c-.07.43-.45.8-.91.84-.66 0-1.09-.59-1.09-1.32 0-.66.38-1.16 1.09-1.16.38 0 .73.19.91.52l.84-.4A1.94 1.94 0 0 0 14.03 7C12.78 7 12 7.76 12 8.94S12.81 11 14.03 11c1.21 0 1.97-.95 1.97-2.01V8.6h-2v.8h.91Z" fill="#2ED095"/><path d="M11.36 9.73c0-.77-.65-1.02-1.62-1.18-.47-.08-.8-.16-.8-.44 0-.24.3-.36.62-.36.36-.02.69.13.93.4l.77-.4c-.41-.54-1-.75-1.7-.75-.92 0-1.6.44-1.6 1.2 0 .82.71 1.02 1.38 1.13.6.1 1.03.15 1.03.5 0 .26-.33.42-.7.42a1.2 1.2 0 0 1-1.1-.54l-.84.33c.36.58.93.96 1.89.96 1.11-.02 1.74-.57 1.74-1.27Z" fill="#70757A"/><path d="M7 11V7H5.48l-.96 2.88L3.53 7H2v4h1V7.98L4.05 11h.9L6 7.98V11h1Z"/></svg>
